X: 884
T: Shenandoah Breakdown
C:Bill Monroe as played Joe Carr
B: jims roots
M:4/4
L:1/8
Q: 1/4=100
K:A
V:1 
xEF ABcd| [P:Part A1] "A"e2ef edce|"D"d6cd|"A"efed cBAc|"E"BEE4cd|
"A"e2ef edce|"D"d6ed|"E"cBAc BAGB|"A"A2EF ABcd||!
"A"e2ef edce|"D"dcde fgaf|"A"efed cBAc|"E"BAGF EFGB|
"A"ABcd ef=ge|"D"fede fgaf|"E"gfef gabg|"A"a6f=g||!
"D"a=gfa gfeg|fedf edcd|"A"e3d cdcB|cBAB A=GFE|!
"D"DEFA Bcde|fef=g fedf|"E"edce dcBd|"A"cBAB A=GFE||!
"D"DEFA Bcde|fef=g fedf|"A"edce dcBd|cBAB A=GFE|!
"D"DEFA Bcde|fef=g fedf|"E"e^def gefg|"A"afec A2fg||!
"A"agae fgaf|edcB A4|AcBA FEz2|"E"z2[B2G2] "A"[c4A4]|
% abcbook-tune_id 6298c287388fe42c92a4fd96


% abcbook-boost 0
% abcbook-tablature 
% abcbook-transpose 
% abcbook-lastupdated 1654178440322
% abcbook-soundfonts 
% abcbook-repeats 1


